X: 1
T: Barking at the Tree
O: Sean Beckett 2019
%R: march
F: http://ancients.sudburymuster.org/mus/sng/pdf/barkingC0.pdf
Z: 2020 John Chambers <jc:trillian.mit.edu>
M: 2/4
L: 1/16
Q: 1/4=95
K: G
dc \
| B2d2 G2B2 | D2D2 D2GF | E2G2 c2e2 | c4 B2dc |\
| B2d2 G2B2 | D2D2 D2GF | E2G2 F2A2 | G6 :| 
K: D
A2 \
| A2A2 A2A2 | d4 A4 | B2B2 B2B2 | d4 B4 |\
| A2A2 A2A2 | d2cd e2c2 | d2A2 F2A2 | D6 ||
A2 \
| A2A2 A2A2 | d4 A4 | B2B2 B2B2 | d6 B2 |\
| A2F2 A2F2 | G2E2 D2c2 | d8- | d4 z2 |]

